X:546
T:A Rosa Vermelha - harmony
S:Barbara Pomerenke-Steel
Z:Nigel Gatherer
M:4/4
L:1/8
K:Am
z4 c4 | e4 c4 | A2A2 c4 | e4 d4 | A2 A2 d4 | d2d2 c4 |
c2c2 B4 | B2B2 A4 | A2A2 c2a2 | e2e2 c4 | A2A2 c2a2 |
e2e2 f4 | d2d2 d2f2 | d2d2 c2A2 | c2e2 e2B2 | B2B2 A4 |
A2A2 cBea | gfed c2A2 | A2 AB cBcd | effe f4 |
A2 A^c de f2 | fede Accd | e2e2 e2B2 | BA ^G2 A4- | A4 z4 |]
